svg/delete_variant.svg

<svg xmlns="http://www.w3.org/2000/svg" viewBox="0 0 24 24"><path d="M21.03 3 18 20.31c-.17.96-1 1.69-2 1.69H8c-1 0-1.83-.73-2-1.69L2.97 3zM5.36 5 8 20h8l2.64-15zM9 18v-4h4v4zm4-4.82L9.82 10 13 6.82 16.18 10z"/></svg>

<?xml version="1.0" encoding="UTF-8"?><!DOCTYPE svg PUBLIC "-//W3C//DTD SVG 1.1//EN" "http://www.w3.org/Graphics/SVG/1.1/DTD/svg11.dtd"><svg xmlns="http://www.w3.org/2000/svg" xmlns:xlink="http://www.w3.org/1999/xlink" version="1.1" id="mdi-delete-variant" width="24" height="24" viewBox="0 0 24 24"><path d="M21.03,3L18,20.31C17.83,21.27 17,22 16,22H8C7,22 6.17,21.27 6,20.31L2.97,3H21.03M5.36,5L8,20H16L18.64,5H5.36M9,18V14H13V18H9M13,13.18L9.82,10L13,6.82L16.18,10L13,13.18Z" /></svg>
